img/mostovoye-polotno.svg

<svg width="115" height="115" viewBox="0 0 115 115" fill="none" xmlns="http://www.w3.org/2000/svg">
<g filter="url(#filter0_i_1874_14504)">
<rect width="115" height="115" rx="15" fill="#F8F4F4"/>
</g>
<g filter="url(#filter1_d_1874_14504)">
<path fill-rule="evenodd" clip-rule="evenodd" d="M95.6552 26.5156H19.5172H10L19.5171 42.9308V97.1018H33.793V42.931H33.7931C33.7931 42.931 34.9828 36.6932 42.1207 36.6932C49.2365 36.6932 50.4409 42.8925 50.4482 42.9308V97.1018H64.7241V42.931H64.7241C64.7241 42.931 65.9138 36.6932 73.0517 36.6932C80.1142 36.6932 81.3535 42.7999 81.3789 42.9289V97.1018H95.6548V42.931H95.6552L105.172 26.5156H95.6552Z" fill="white"/>
</g>
<mask id="mask0_1874_14504" style="mask-type:alpha" maskUnits="userSpaceOnUse" x="10" y="26" width="96" height="72">
<path fill-rule="evenodd" clip-rule="evenodd" d="M95.6552 26.5156H19.5172H10L19.5171 42.9308V97.1018H33.793V42.931H33.7931C33.7931 42.931 34.9828 36.6932 42.1207 36.6932C49.2365 36.6932 50.4409 42.8925 50.4482 42.9308V97.1018H64.7241V42.931H64.7241C64.7241 42.931 65.9138 36.6932 73.0517 36.6932C80.1142 36.6932 81.3535 42.7999 81.3789 42.9289V97.1018H95.6548V42.931H95.6552L105.172 26.5156H95.6552Z" fill="white"/>
</mask>
<g mask="url(#mask0_1874_14504)">
<rect x="7.62061" y="25.8594" width="97.5517" height="36.1139" fill="#C1141E"/>
</g>
<g filter="url(#filter2_i_1874_14504)">
<path d="M105.172 26.5172H10L19.9138 17H95.6552L105.172 26.5172Z" fill="#707070"/>
</g>
<defs>
<filter id="filter0_i_1874_14504" x="0" y="0" width="117" height="117" filterUnits="userSpaceOnUse" color-interpolation-filters="sRGB">
<feFlood flood-opacity="0" result="BackgroundImageFix"/>
<feBlend mode="normal" in="SourceGraphic" in2="BackgroundImageFix" result="shape"/>
<feColorMatrix in="SourceAlpha" type="matrix" values="0 0 0 0 0 0 0 0 0 0 0 0 0 0 0 0 0 0 127 0" result="hardAlpha"/>
<feOffset dx="2" dy="2"/>
<feGaussianBlur stdDeviation="3"/>
<feComposite in2="hardAlpha" operator="arithmetic" k2="-1" k3="1"/>
<feColorMatrix type="matrix" values="0 0 0 0 0 0 0 0 0 0 0 0 0 0 0 0 0 0 0.05 0"/>
<feBlend mode="normal" in2="shape" result="effect1_innerShadow_1874_14504"/>
</filter>
<filter id="filter1_d_1874_14504" x="7" y="25.5156" width="101.172" height="76.5859" filterUnits="userSpaceOnUse" color-interpolation-filters="sRGB">
<feFlood flood-opacity="0" result="BackgroundImageFix"/>
<feColorMatrix in="SourceAlpha" type="matrix" values="0 0 0 0 0 0 0 0 0 0 0 0 0 0 0 0 0 0 127 0" result="hardAlpha"/>
<feOffset dy="2"/>
<feGaussianBlur stdDeviation="1.5"/>
<feComposite in2="hardAlpha" operator="out"/>
<feColorMatrix type="matrix" values="0 0 0 0 0 0 0 0 0 0 0 0 0 0 0 0 0 0 0.25 0"/>
<feBlend mode="normal" in2="BackgroundImageFix" result="effect1_dropShadow_1874_14504"/>
<feBlend mode="normal" in="SourceGraphic" in2="effect1_dropShadow_1874_14504" result="shape"/>
</filter>
<filter id="filter2_i_1874_14504" x="10" y="17" width="95.1724" height="13.5156" filterUnits="userSpaceOnUse" color-interpolation-filters="sRGB">
<feFlood flood-opacity="0" result="BackgroundImageFix"/>
<feBlend mode="normal" in="SourceGraphic" in2="BackgroundImageFix" result="shape"/>
<feColorMatrix in="SourceAlpha" type="matrix" values="0 0 0 0 0 0 0 0 0 0 0 0 0 0 0 0 0 0 127 0" result="hardAlpha"/>
<feOffset dy="4"/>
<feGaussianBlur stdDeviation="2"/>
<feComposite in2="hardAlpha" operator="arithmetic" k2="-1" k3="1"/>
<feColorMatrix type="matrix" values="0 0 0 0 0 0 0 0 0 0 0 0 0 0 0 0 0 0 0.25 0"/>
<feBlend mode="normal" in2="shape" result="effect1_innerShadow_1874_14504"/>
</filter>
</defs>
</svg>

<svg width="115" height="115" fill="none" xmlns="http://www.w3.org/2000/svg"><g filter="url(#filter0_i_1874_14504)"><rect width="115" height="115" rx="15" fill="#F8F4F4"/></g><g filter="url(#filter1_d_1874_14504)"><path fill-rule="evenodd" clip-rule="evenodd" d="M95.655 26.516H10l9.517 16.415V97.1h14.276V42.93s1.19-6.238 8.328-6.238c7.115 0 8.32 6.2 8.327 6.238V97.1h14.276V42.93s1.19-6.238 8.328-6.238c7.062 0 8.301 6.107 8.327 6.236v54.173h14.276V42.93l9.517-16.415h-9.517z" fill="#fff"/></g><mask id="a" style="mask-type:alpha" maskUnits="userSpaceOnUse" x="10" y="26" width="96" height="72"><path fill-rule="evenodd" clip-rule="evenodd" d="M95.655 26.516H10l9.517 16.415V97.1h14.276V42.93s1.19-6.238 8.328-6.238c7.115 0 8.32 6.2 8.327 6.238V97.1h14.276V42.93s1.19-6.238 8.328-6.238c7.062 0 8.301 6.107 8.327 6.236v54.173h14.276V42.93l9.517-16.415h-9.517z" fill="#fff"/></mask><g mask="url(#a)"><path fill="#C1141E" d="M7.621 25.859h97.552v36.114H7.621z"/></g><g filter="url(#filter2_i_1874_14504)"><path d="M105.172 26.517H10L19.914 17h75.741l9.517 9.517z" fill="#707070"/></g><defs><filter id="filter0_i_1874_14504" x="0" y="0" width="117" height="117" filterUnits="userSpaceOnUse" color-interpolation-filters="sRGB"><feFlood flood-opacity="0" result="BackgroundImageFix"/><feBlend in="SourceGraphic" in2="BackgroundImageFix" result="shape"/><feColorMatrix in="SourceAlpha" values="0 0 0 0 0 0 0 0 0 0 0 0 0 0 0 0 0 0 127 0" result="hardAlpha"/><feOffset dx="2" dy="2"/><feGaussianBlur stdDeviation="3"/><feComposite in2="hardAlpha" operator="arithmetic" k2="-1" k3="1"/><feColorMatrix values="0 0 0 0 0 0 0 0 0 0 0 0 0 0 0 0 0 0 0.05 0"/><feBlend in2="shape" result="effect1_innerShadow_1874_14504"/></filter><filter id="filter1_d_1874_14504" x="7" y="25.516" width="101.172" height="76.586" filterUnits="userSpaceOnUse" color-interpolation-filters="sRGB"><feFlood flood-opacity="0" result="BackgroundImageFix"/><feColorMatrix in="SourceAlpha" values="0 0 0 0 0 0 0 0 0 0 0 0 0 0 0 0 0 0 127 0" result="hardAlpha"/><feOffset dy="2"/><feGaussianBlur stdDeviation="1.5"/><feComposite in2="hardAlpha" operator="out"/><feColorMatrix values="0 0 0 0 0 0 0 0 0 0 0 0 0 0 0 0 0 0 0.25 0"/><feBlend in2="BackgroundImageFix" result="effect1_dropShadow_1874_14504"/><feBlend in="SourceGraphic" in2="effect1_dropShadow_1874_14504" result="shape"/></filter><filter id="filter2_i_1874_14504" x="10" y="17" width="95.172" height="13.516" filterUnits="userSpaceOnUse" color-interpolation-filters="sRGB"><feFlood flood-opacity="0" result="BackgroundImageFix"/><feBlend in="SourceGraphic" in2="BackgroundImageFix" result="shape"/><feColorMatrix in="SourceAlpha" values="0 0 0 0 0 0 0 0 0 0 0 0 0 0 0 0 0 0 127 0" result="hardAlpha"/><feOffset dy="4"/><feGaussianBlur stdDeviation="2"/><feComposite in2="hardAlpha" operator="arithmetic" k2="-1" k3="1"/><feColorMatrix values="0 0 0 0 0 0 0 0 0 0 0 0 0 0 0 0 0 0 0.25 0"/><feBlend in2="shape" result="effect1_innerShadow_1874_14504"/></filter></defs></svg>
